X:39
T:GB/7d/39 Saucy Ward 
%%VWML:GB-7d-39-0
F:http://www.vwml.org/record/GB/7d/39
C:Transcribed by Simon Furey and Lewis Jones
L:1/4
M:4/4
I:linebreak $
K:Fmix
c | B A F F | A B c c | B A F F | F3 F | A B c/d/ e | d c B c | d f e d | c3 F |$ A B c/d/ e | d c B c | d f e d | c3 c | B A F F | A B"^(a)" c/d/ c | B A F F | F3 || c |$ B A F F | A B c c | B A F F | F3 F | A B c/d/ e | d c B c | d f e d | c3 F | A B c/d/ e |$ d c B c | d f e d | c3 c | B A F F | A B"^(a) var." c c | B A F F | F3 |]

